Adwaita++/apps/scalable/picmi.svg

<svg fill="none" height="128" viewBox="0 0 128 128" width="128" xmlns="http://www.w3.org/2000/svg" xmlns:xlink="http://www.w3.org/1999/xlink">
  <linearGradient id="lg1">
    <stop offset="0" stop-color="#d5d3cf"/>
    <stop offset=".038" stop-color="#e3e2df"/>
    <stop offset=".077" stop-color="#c0bfbc"/>
    <stop offset=".923" stop-color="#c0bfbc"/>
    <stop offset=".962" stop-color="#e3e2df"/>
    <stop offset="1" stop-color="#d5d3cf"/>
  </linearGradient>
  <linearGradient id="paint0_linear" gradientUnits="userSpaceOnUse" x1="41.8688" x2="14" xlink:href="#lg1" y1="44.0293" y2="44.0293"/>
  <linearGradient id="paint1_linear" gradientUnits="userSpaceOnUse" x1="77.9344" x2="50.0656" xlink:href="#lg1" y1="44.0293" y2="44.0293"/>
  <linearGradient id="paint2_linear" gradientUnits="userSpaceOnUse" x1="114" x2="86.1311" xlink:href="#lg1" y1="44.0293" y2="44.0293"/>
  <linearGradient id="paint3_linear" gradientUnits="userSpaceOnUse" x1="41.8688" x2="14" xlink:href="#lg1" y1="80.0948" y2="80.0948"/>
  <linearGradient id="paint4_linear" gradientUnits="userSpaceOnUse" x1="77.9344" x2="50.0656" xlink:href="#lg1" y1="80.0948" y2="80.0948"/>
  <linearGradient id="paint5_linear" gradientUnits="userSpaceOnUse" x1="114" x2="86.1311" xlink:href="#lg1" y1="80.0948" y2="80.0948"/>
  <linearGradient id="paint6_linear" gradientUnits="userSpaceOnUse" x1="41.8688" x2="14" xlink:href="#lg1" y1="116.16" y2="116.16"/>
  <linearGradient id="paint7_linear" gradientUnits="userSpaceOnUse" x1="77.9344" x2="50.0656" xlink:href="#lg1" y1="116.16" y2="116.16"/>
  <linearGradient id="paint8_linear" gradientUnits="userSpaceOnUse" x1="114" x2="86.1311" xlink:href="#lg1" y1="116.16" y2="116.16"/>
  <path d="m39.7251 15h-23.5813c-1.184 0-2.1438 1.0398-2.1438 2.3224v23.224c0 1.2827.9598 2.3225 2.1438 2.3225h23.5813c1.184 0 2.1438-1.0398 2.1438-2.3225v-23.224c0-1.2826-.9598-2.3224-2.1438-2.3224z" fill="url(#paint0_linear)"/>
  <path d="m75.7907 15h-23.5814c-1.1839 0-2.1437 1.0398-2.1437 2.3224v23.224c0 1.2827.9598 2.3225 2.1437 2.3225h23.5814c1.1839 0 2.1437-1.0398 2.1437-2.3225v-23.224c0-1.2826-.9598-2.3224-2.1437-2.3224z" fill="url(#paint1_linear)"/>
  <path d="m111.856 15h-23.5811c-1.184 0-2.1438 1.0398-2.1438 2.3224v23.224c0 1.2827.9598 2.3225 2.1438 2.3225h23.5811c1.184 0 2.144-1.0398 2.144-2.3225v-23.224c0-1.2826-.96-2.3224-2.144-2.3224z" fill="url(#paint2_linear)"/>
  <path d="m39.7251 51.0656h-23.5813c-1.184 0-2.1438 1.0398-2.1438 2.3224v23.224c0 1.2827.9598 2.3224 2.1438 2.3224h23.5813c1.184 0 2.1438-1.0397 2.1438-2.3224v-23.224c0-1.2826-.9598-2.3224-2.1438-2.3224z" fill="url(#paint3_linear)"/>
  <path d="m75.7907 51.0656h-23.5814c-1.1839 0-2.1437 1.0398-2.1437 2.3224v23.224c0 1.2827.9598 2.3224 2.1437 2.3224h23.5814c1.1839 0 2.1437-1.0397 2.1437-2.3224v-23.224c0-1.2826-.9598-2.3224-2.1437-2.3224z" fill="url(#paint4_linear)"/>
  <path d="m111.856 51.0656h-23.5811c-1.184 0-2.1438 1.0398-2.1438 2.3224v23.224c0 1.2827.9598 2.3224 2.1438 2.3224h23.5811c1.184 0 2.144-1.0397 2.144-2.3224v-23.224c0-1.2826-.96-2.3224-2.144-2.3224z" fill="url(#paint5_linear)"/>
  <path d="m39.7251 87.1311h-23.5813c-1.184 0-2.1438 1.0398-2.1438 2.3225v23.2244c0 1.282.9598 2.322 2.1438 2.322h23.5813c1.184 0 2.1438-1.04 2.1438-2.322v-23.2244c0-1.2827-.9598-2.3225-2.1438-2.3225z" fill="url(#paint6_linear)"/>
  <path d="m75.7907 87.1311h-23.5814c-1.1839 0-2.1437 1.0398-2.1437 2.3225v23.2244c0 1.282.9598 2.322 2.1437 2.322h23.5814c1.1839 0 2.1437-1.04 2.1437-2.322v-23.2244c0-1.2827-.9598-2.3225-2.1437-2.3225z" fill="url(#paint7_linear)"/>
  <path d="m111.856 87.1311h-23.5811c-1.184 0-2.1438 1.0398-2.1438 2.3225v23.2244c0 1.282.9598 2.322 2.1438 2.322h23.5811c1.184 0 2.144-1.04 2.144-2.322v-23.2244c0-1.2827-.96-2.3225-2.144-2.3225z" fill="url(#paint8_linear)"/>
  <path d="m39.7251 13h-23.5813c-1.184 0-2.1438 1.0398-2.1438 2.3224v23.224c0 1.2827.9598 2.3225 2.1438 2.3225h23.5813c1.184 0 2.1438-1.0398 2.1438-2.3225v-23.224c0-1.2826-.9598-2.3224-2.1438-2.3224z" fill="#2ec27e"/>
  <path d="m75.7907 13h-23.5814c-1.1839 0-2.1437 1.0398-2.1437 2.3224v23.224c0 1.2827.9598 2.3225 2.1437 2.3225h23.5814c1.1839 0 2.1437-1.0398 2.1437-2.3225v-23.224c0-1.2826-.9598-2.3224-2.1437-2.3224z" fill="#f5c211"/>
  <path d="m111.856 13h-23.5811c-1.184 0-2.1438 1.0398-2.1438 2.3224v23.224c0 1.2827.9598 2.3225 2.1438 2.3225h23.5811c1.184 0 2.144-1.0398 2.144-2.3225v-23.224c0-1.2826-.96-2.3224-2.144-2.3224z" fill="#2ec27e"/>
  <path d="m39.7251 49.0656h-23.5813c-1.184 0-2.1438 1.0398-2.1438 2.3224v23.224c0 1.2827.9598 2.3224 2.1438 2.3224h23.5813c1.184 0 2.1438-1.0397 2.1438-2.3224v-23.224c0-1.2826-.9598-2.3224-2.1438-2.3224z" fill="#f5c211"/>
  <path d="m75.7907 49.0656h-23.5814c-1.1839 0-2.1437 1.0398-2.1437 2.3224v23.224c0 1.2827.9598 2.3224 2.1437 2.3224h23.5814c1.1839 0 2.1437-1.0397 2.1437-2.3224v-23.224c0-1.2826-.9598-2.3224-2.1437-2.3224z" fill="#2ec27e"/>
  <path d="m111.856 49.0656h-23.5811c-1.184 0-2.1438 1.0398-2.1438 2.3224v23.224c0 1.2827.9598 2.3224 2.1438 2.3224h23.5811c1.184 0 2.144-1.0397 2.144-2.3224v-23.224c0-1.2826-.96-2.3224-2.144-2.3224z" fill="#f5c211"/>
  <path d="m39.7251 85.1311h-23.5813c-1.184 0-2.1438 1.0398-2.1438 2.3225v23.2244c0 1.282.9598 2.322 2.1438 2.322h23.5813c1.184 0 2.1438-1.04 2.1438-2.322v-23.2244c0-1.2827-.9598-2.3225-2.1438-2.3225z" fill="#2ec27e"/>
  <path d="m75.7907 85.1311h-23.5814c-1.1839 0-2.1437 1.0398-2.1437 2.3225v23.2244c0 1.282.9598 2.322 2.1437 2.322h23.5814c1.1839 0 2.1437-1.04 2.1437-2.322v-23.2244c0-1.2827-.9598-2.3225-2.1437-2.3225z" fill="#f5c211"/>
  <path d="m111.856 85.1311h-23.5811c-1.184 0-2.1438 1.0398-2.1438 2.3225v23.2244c0 1.282.9598 2.322 2.1438 2.322h23.5811c1.184 0 2.144-1.04 2.144-2.322v-23.2244c0-1.2827-.96-2.3225-2.144-2.3225z" fill="#2ec27e"/>
  <g fill="#f6f5f4">
    <path d="m18.9412 54.0005h2.2492c.0233-.0003.0467-.001.0703 0 .5734.0252 1.1468.2893 1.5462.7031l5.1308 5.1326 5.2011-5.1326c.5975-.5187 1.0047-.6873 1.5463-.7031h2.2492v2.2499c0 .6445-.0773 1.239-.5624 1.6875l-5.1307 5.1326 5.0606 5.0624c.4232.4233.6325 1.0202.6326 1.6172v2.2499h-2.2492c-.5966 0-1.1934-.2095-1.6165-.6327l-5.1307-5.1326-5.1309 5.1326c-.4231.4234-1.0199.6327-1.6166.6327h-2.249v-2.2499c0-.597.2093-1.1939.6325-1.6172l5.1307-5.0624-5.1307-5.1326c-.474-.4379-.6818-1.0558-.6325-1.6875v-2.2499z"/>
    <path d="m55.0068 54.0005h2.2492c.0233-.0003.0467-.001.0703 0 .5734.0252 1.1467.2893 1.5462.7031l5.1307 5.1326 5.2012-5.1326c.5974-.5187 1.0046-.6873 1.5463-.7031h2.2491v2.2499c0 .6445-.0772 1.239-.5623 1.6875l-5.1307 5.1326 5.0606 5.0624c.4232.4233.6324 1.0202.6326 1.6172v2.2499h-2.2492c-.5966 0-1.1935-.2095-1.6165-.6327l-5.1308-5.1326-5.1308 5.1326c-.4231.4234-1.0199.6327-1.6166.6327h-2.249v-2.2499c0-.597.2093-1.1939.6325-1.6172l5.1307-5.0624-5.1307-5.1326c-.4741-.4379-.6818-1.0558-.6325-1.6875v-2.2499z"/>
    <path d="m91.0724 18.0005h2.2491c.0233-.0003.0468-.001.0704 0 .5733.0252 1.1467.2893 1.5462.7031l5.1309 5.1326 5.201-5.1326c.597-.5187 1.005-.6873 1.546-.7031h2.249v2.2499c0 .6445-.077 1.239-.562 1.6875l-5.131 5.1326 5.061 5.0624c.423.4233.632 1.0202.633 1.6172v2.2499h-2.25c-.596 0-1.193-.2095-1.616-.6327l-5.131-5.1326-5.1308 5.1326c-.423.4234-1.0198.6327-1.6165.6327h-2.249v-2.2499c0-.597.2092-1.1939.6325-1.6172l5.1307-5.0624-5.1307-5.1326c-.4741-.4379-.6818-1.0558-.6325-1.6875v-2.2499z"/>
  </g>
</svg>

<svg width="128" height="128" viewBox="0 0 128 128" fill="none" xmlns="http://www.w3.org/2000/svg">
<path d="M39.7251 15H16.1438C14.9598 15 14 16.0398 14 17.3224V40.5464C14 41.8291 14.9598 42.8689 16.1438 42.8689H39.7251C40.9091 42.8689 41.8689 41.8291 41.8689 40.5464V17.3224C41.8689 16.0398 40.9091 15 39.7251 15Z" fill="url(#paint0_linear)"/>
<path d="M75.7907 15H52.2093C51.0254 15 50.0656 16.0398 50.0656 17.3224V40.5464C50.0656 41.8291 51.0254 42.8689 52.2093 42.8689H75.7907C76.9746 42.8689 77.9344 41.8291 77.9344 40.5464V17.3224C77.9344 16.0398 76.9746 15 75.7907 15Z" fill="url(#paint1_linear)"/>
<path d="M111.856 15H88.2749C87.0909 15 86.1311 16.0398 86.1311 17.3224V40.5464C86.1311 41.8291 87.0909 42.8689 88.2749 42.8689H111.856C113.04 42.8689 114 41.8291 114 40.5464V17.3224C114 16.0398 113.04 15 111.856 15Z" fill="url(#paint2_linear)"/>
<path d="M39.7251 51.0656H16.1438C14.9598 51.0656 14 52.1054 14 53.388V76.612C14 77.8947 14.9598 78.9344 16.1438 78.9344H39.7251C40.9091 78.9344 41.8689 77.8947 41.8689 76.612V53.388C41.8689 52.1054 40.9091 51.0656 39.7251 51.0656Z" fill="url(#paint3_linear)"/>
<path d="M75.7907 51.0656H52.2093C51.0254 51.0656 50.0656 52.1054 50.0656 53.388V76.612C50.0656 77.8947 51.0254 78.9344 52.2093 78.9344H75.7907C76.9746 78.9344 77.9344 77.8947 77.9344 76.612V53.388C77.9344 52.1054 76.9746 51.0656 75.7907 51.0656Z" fill="url(#paint4_linear)"/>
<path d="M111.856 51.0656H88.2749C87.0909 51.0656 86.1311 52.1054 86.1311 53.388V76.612C86.1311 77.8947 87.0909 78.9344 88.2749 78.9344H111.856C113.04 78.9344 114 77.8947 114 76.612V53.388C114 52.1054 113.04 51.0656 111.856 51.0656Z" fill="url(#paint5_linear)"/>
<path d="M39.7251 87.1311H16.1438C14.9598 87.1311 14 88.1709 14 89.4536V112.678C14 113.96 14.9598 115 16.1438 115H39.7251C40.9091 115 41.8689 113.96 41.8689 112.678V89.4536C41.8689 88.1709 40.9091 87.1311 39.7251 87.1311Z" fill="url(#paint6_linear)"/>
<path d="M75.7907 87.1311H52.2093C51.0254 87.1311 50.0656 88.1709 50.0656 89.4536V112.678C50.0656 113.96 51.0254 115 52.2093 115H75.7907C76.9746 115 77.9344 113.96 77.9344 112.678V89.4536C77.9344 88.1709 76.9746 87.1311 75.7907 87.1311Z" fill="url(#paint7_linear)"/>
<path d="M111.856 87.1311H88.2749C87.0909 87.1311 86.1311 88.1709 86.1311 89.4536V112.678C86.1311 113.96 87.0909 115 88.2749 115H111.856C113.04 115 114 113.96 114 112.678V89.4536C114 88.1709 113.04 87.1311 111.856 87.1311Z" fill="url(#paint8_linear)"/>
<path d="M39.7251 13H16.1438C14.9598 13 14 14.0398 14 15.3224V38.5464C14 39.8291 14.9598 40.8689 16.1438 40.8689H39.7251C40.9091 40.8689 41.8689 39.8291 41.8689 38.5464V15.3224C41.8689 14.0398 40.9091 13 39.7251 13Z" fill="url(#paint9_linear)"/>
<path d="M75.7907 13H52.2093C51.0254 13 50.0656 14.0398 50.0656 15.3224V38.5464C50.0656 39.8291 51.0254 40.8689 52.2093 40.8689H75.7907C76.9746 40.8689 77.9344 39.8291 77.9344 38.5464V15.3224C77.9344 14.0398 76.9746 13 75.7907 13Z" fill="url(#paint10_linear)"/>
<path d="M111.856 13H88.2749C87.0909 13 86.1311 14.0398 86.1311 15.3224V38.5464C86.1311 39.8291 87.0909 40.8689 88.2749 40.8689H111.856C113.04 40.8689 114 39.8291 114 38.5464V15.3224C114 14.0398 113.04 13 111.856 13Z" fill="url(#paint11_linear)"/>
<path d="M39.7251 49.0656H16.1438C14.9598 49.0656 14 50.1054 14 51.388V74.612C14 75.8947 14.9598 76.9344 16.1438 76.9344H39.7251C40.9091 76.9344 41.8689 75.8947 41.8689 74.612V51.388C41.8689 50.1054 40.9091 49.0656 39.7251 49.0656Z" fill="url(#paint12_linear)"/>
<path d="M75.7907 49.0656H52.2093C51.0254 49.0656 50.0656 50.1054 50.0656 51.388V74.612C50.0656 75.8947 51.0254 76.9344 52.2093 76.9344H75.7907C76.9746 76.9344 77.9344 75.8947 77.9344 74.612V51.388C77.9344 50.1054 76.9746 49.0656 75.7907 49.0656Z" fill="url(#paint13_linear)"/>
<path d="M111.856 49.0656H88.2749C87.0909 49.0656 86.1311 50.1054 86.1311 51.388V74.612C86.1311 75.8947 87.0909 76.9344 88.2749 76.9344H111.856C113.04 76.9344 114 75.8947 114 74.612V51.388C114 50.1054 113.04 49.0656 111.856 49.0656Z" fill="url(#paint14_linear)"/>
<path d="M39.7251 85.1311H16.1438C14.9598 85.1311 14 86.1709 14 87.4536V110.678C14 111.96 14.9598 113 16.1438 113H39.7251C40.9091 113 41.8689 111.96 41.8689 110.678V87.4536C41.8689 86.1709 40.9091 85.1311 39.7251 85.1311Z" fill="url(#paint15_linear)"/>
<path d="M75.7907 85.1311H52.2093C51.0254 85.1311 50.0656 86.1709 50.0656 87.4536V110.678C50.0656 111.96 51.0254 113 52.2093 113H75.7907C76.9746 113 77.9344 111.96 77.9344 110.678V87.4536C77.9344 86.1709 76.9746 85.1311 75.7907 85.1311Z" fill="url(#paint16_linear)"/>
<path d="M111.856 85.1311H88.2749C87.0909 85.1311 86.1311 86.1709 86.1311 87.4536V110.678C86.1311 111.96 87.0909 113 88.2749 113H111.856C113.04 113 114 111.96 114 110.678V87.4536C114 86.1709 113.04 85.1311 111.856 85.1311Z" fill="url(#paint17_linear)"/>
<path d="M18.9412 54.0005H21.1904C21.2137 54.0002 21.2371 53.9995 21.2607 54.0005C21.8341 54.0257 22.4075 54.2898 22.8069 54.7036L27.9377 59.8362L33.1388 54.7036C33.7363 54.1849 34.1435 54.0163 34.6851 54.0005H36.9343V56.2504C36.9343 56.8949 36.857 57.4894 36.3719 57.9379L31.2412 63.0705L36.3018 68.1329C36.725 68.5562 36.9343 69.1531 36.9344 69.7501V72H34.6852C34.0886 72 33.4918 71.7905 33.0687 71.3673L27.938 66.2347L22.8071 71.3673C22.384 71.7907 21.7872 72 21.1905 72H18.9415V69.7501C18.9415 69.1531 19.1508 68.5562 19.574 68.1329L24.7047 63.0705L19.574 57.9379C19.1 57.5 18.8922 56.8821 18.9415 56.2504V54.0005H18.9412Z" fill="url(#paint18_linear)"/>
<path d="M55.0068 54.0005H57.256C57.2793 54.0002 57.3027 53.9995 57.3263 54.0005C57.8997 54.0257 58.473 54.2898 58.8725 54.7036L64.0032 59.8362L69.2044 54.7036C69.8018 54.1849 70.209 54.0163 70.7507 54.0005H72.9998V56.2504C72.9998 56.8949 72.9226 57.4894 72.4375 57.9379L67.3068 63.0705L72.3674 68.1329C72.7906 68.5562 72.9998 69.1531 73 69.7501V72H70.7508C70.1542 72 69.5573 71.7905 69.1343 71.3673L64.0035 66.2347L58.8727 71.3673C58.4496 71.7907 57.8528 72 57.2561 72H55.0071V69.7501C55.0071 69.1531 55.2164 68.5562 55.6396 68.1329L60.7703 63.0705L55.6396 57.9379C55.1655 57.5 54.9578 56.8821 55.0071 56.2504V54.0005H55.0068Z" fill="url(#paint19_linear)"/>
<path d="M91.0724 18.0005H93.3215C93.3448 18.0002 93.3683 17.9995 93.3919 18.0005C93.9652 18.0257 94.5386 18.2898 94.9381 18.7036L100.069 23.8362L105.27 18.7036C105.867 18.1849 106.275 18.0163 106.816 18.0005H109.065V20.2504C109.065 20.8949 108.988 21.4894 108.503 21.9379L103.372 27.0705L108.433 32.1329C108.856 32.5562 109.065 33.1531 109.066 33.7501V36H106.816C106.22 36 105.623 35.7905 105.2 35.3673L100.069 30.2347L94.9382 35.3673C94.5152 35.7907 93.9184 36 93.3217 36H91.0727V33.7501C91.0727 33.1531 91.2819 32.5562 91.7052 32.1329L96.8359 27.0705L91.7052 21.9379C91.2311 21.5 91.0234 20.8821 91.0727 20.2504V18.0005H91.0724Z" fill="url(#paint20_linear)"/>
<defs>
<linearGradient id="paint0_linear" x1="41.8688" y1="44.0293" x2="14" y2="44.0293" gradientUnits="userSpaceOnUse">
<stop stop-color="#D5D3CF"/>
<stop offset="0.038" stop-color="#E3E2DF"/>
<stop offset="0.077" stop-color="#C0BFBC"/>
<stop offset="0.923" stop-color="#C0BFBC"/>
<stop offset="0.962" stop-color="#E3E2DF"/>
<stop offset="1" stop-color="#D5D3CF"/>
</linearGradient>
<linearGradient id="paint1_linear" x1="77.9344" y1="44.0293" x2="50.0656" y2="44.0293" gradientUnits="userSpaceOnUse">
<stop stop-color="#D5D3CF"/>
<stop offset="0.038" stop-color="#E3E2DF"/>
<stop offset="0.077" stop-color="#C0BFBC"/>
<stop offset="0.923" stop-color="#C0BFBC"/>
<stop offset="0.962" stop-color="#E3E2DF"/>
<stop offset="1" stop-color="#D5D3CF"/>
</linearGradient>
<linearGradient id="paint2_linear" x1="114" y1="44.0293" x2="86.1311" y2="44.0293" gradientUnits="userSpaceOnUse">
<stop stop-color="#D5D3CF"/>
<stop offset="0.038" stop-color="#E3E2DF"/>
<stop offset="0.077" stop-color="#C0BFBC"/>
<stop offset="0.923" stop-color="#C0BFBC"/>
<stop offset="0.962" stop-color="#E3E2DF"/>
<stop offset="1" stop-color="#D5D3CF"/>
</linearGradient>
<linearGradient id="paint3_linear" x1="41.8688" y1="80.0948" x2="14" y2="80.0948" gradientUnits="userSpaceOnUse">
<stop stop-color="#D5D3CF"/>
<stop offset="0.038" stop-color="#E3E2DF"/>
<stop offset="0.077" stop-color="#C0BFBC"/>
<stop offset="0.923" stop-color="#C0BFBC"/>
<stop offset="0.962" stop-color="#E3E2DF"/>
<stop offset="1" stop-color="#D5D3CF"/>
</linearGradient>
<linearGradient id="paint4_linear" x1="77.9344" y1="80.0948" x2="50.0656" y2="80.0948" gradientUnits="userSpaceOnUse">
<stop stop-color="#D5D3CF"/>
<stop offset="0.038" stop-color="#E3E2DF"/>
<stop offset="0.077" stop-color="#C0BFBC"/>
<stop offset="0.923" stop-color="#C0BFBC"/>
<stop offset="0.962" stop-color="#E3E2DF"/>
<stop offset="1" stop-color="#D5D3CF"/>
</linearGradient>
<linearGradient id="paint5_linear" x1="114" y1="80.0948" x2="86.1311" y2="80.0948" gradientUnits="userSpaceOnUse">
<stop stop-color="#D5D3CF"/>
<stop offset="0.038" stop-color="#E3E2DF"/>
<stop offset="0.077" stop-color="#C0BFBC"/>
<stop offset="0.923" stop-color="#C0BFBC"/>
<stop offset="0.962" stop-color="#E3E2DF"/>
<stop offset="1" stop-color="#D5D3CF"/>
</linearGradient>
<linearGradient id="paint6_linear" x1="41.8688" y1="116.16" x2="14" y2="116.16" gradientUnits="userSpaceOnUse">
<stop stop-color="#D5D3CF"/>
<stop offset="0.038" stop-color="#E3E2DF"/>
<stop offset="0.077" stop-color="#C0BFBC"/>
<stop offset="0.923" stop-color="#C0BFBC"/>
<stop offset="0.962" stop-color="#E3E2DF"/>
<stop offset="1" stop-color="#D5D3CF"/>
</linearGradient>
<linearGradient id="paint7_linear" x1="77.9344" y1="116.16" x2="50.0656" y2="116.16" gradientUnits="userSpaceOnUse">
<stop stop-color="#D5D3CF"/>
<stop offset="0.038" stop-color="#E3E2DF"/>
<stop offset="0.077" stop-color="#C0BFBC"/>
<stop offset="0.923" stop-color="#C0BFBC"/>
<stop offset="0.962" stop-color="#E3E2DF"/>
<stop offset="1" stop-color="#D5D3CF"/>
</linearGradient>
<linearGradient id="paint8_linear" x1="114" y1="116.16" x2="86.1311" y2="116.16" gradientUnits="userSpaceOnUse">
<stop stop-color="#D5D3CF"/>
<stop offset="0.038" stop-color="#E3E2DF"/>
<stop offset="0.077" stop-color="#C0BFBC"/>
<stop offset="0.923" stop-color="#C0BFBC"/>
<stop offset="0.962" stop-color="#E3E2DF"/>
<stop offset="1" stop-color="#D5D3CF"/>
</linearGradient>
<linearGradient id="paint9_linear" x1="14" y1="26.9344" x2="41.8689" y2="26.9344" gradientUnits="userSpaceOnUse">
<stop stop-color="#2EC27E"/>
</linearGradient>
<linearGradient id="paint10_linear" x1="50.0656" y1="26.9344" x2="77.9344" y2="26.9344" gradientUnits="userSpaceOnUse">
<stop stop-color="#F5C211"/>
</linearGradient>
<linearGradient id="paint11_linear" x1="86.1311" y1="26.9344" x2="114" y2="26.9344" gradientUnits="userSpaceOnUse">
<stop stop-color="#2EC27E"/>
</linearGradient>
<linearGradient id="paint12_linear" x1="14" y1="63" x2="41.8688" y2="63" gradientUnits="userSpaceOnUse">
<stop stop-color="#F5C211"/>
</linearGradient>
<linearGradient id="paint13_linear" x1="50.0656" y1="63" x2="77.9344" y2="63" gradientUnits="userSpaceOnUse">
<stop stop-color="#2EC27E"/>
</linearGradient>
<linearGradient id="paint14_linear" x1="86.1311" y1="63" x2="114" y2="63" gradientUnits="userSpaceOnUse">
<stop stop-color="#F5C211"/>
</linearGradient>
<linearGradient id="paint15_linear" x1="14" y1="99.0656" x2="41.8689" y2="99.0656" gradientUnits="userSpaceOnUse">
<stop stop-color="#2EC27E"/>
</linearGradient>
<linearGradient id="paint16_linear" x1="50.0656" y1="99.0656" x2="77.9344" y2="99.0656" gradientUnits="userSpaceOnUse">
<stop stop-color="#F5C211"/>
</linearGradient>
<linearGradient id="paint17_linear" x1="86.1311" y1="99.0656" x2="114" y2="99.0656" gradientUnits="userSpaceOnUse">
<stop stop-color="#2EC27E"/>
</linearGradient>
<linearGradient id="paint18_linear" x1="18.9344" y1="63" x2="36.9344" y2="63" gradientUnits="userSpaceOnUse">
<stop stop-color="#F6F5F4"/>
</linearGradient>
<linearGradient id="paint19_linear" x1="55" y1="63" x2="73" y2="63" gradientUnits="userSpaceOnUse">
<stop stop-color="#F6F5F4"/>
</linearGradient>
<linearGradient id="paint20_linear" x1="91.0656" y1="27" x2="109.066" y2="27" gradientUnits="userSpaceOnUse">
<stop stop-color="#F6F5F4"/>
</linearGradient>
</defs>
</svg>
